app/static/assets/svg/api.svg

<path d="M92.87 59.52l-3.19-1.79c.53-2.59.8-5.19.8-7.73 0-2.58-.26-5.18-.79-7.74l3.18-1.78c.98-.56 1.69-1.45 1.98-2.52.3-1.07.15-2.18-.42-3.14l-8.7-14.64a4.212 4.212 0 0 0-2.58-1.93c-1.1-.29-2.25-.14-3.23.41l-3.18 1.79c-4.02-3.44-8.75-6.1-13.79-7.75V9.14c0-2.28-1.91-4.14-4.26-4.14H41.31c-2.35 0-4.26 1.86-4.26 4.14v3.56c-5.01 1.64-9.73 4.31-13.77 7.76l-3.2-1.8c-.98-.55-2.13-.7-3.23-.41s-2.01.97-2.58 1.93l-8.7 14.64a3.98 3.98 0 0 0-.42 3.14c.29 1.07 1 1.96 1.98 2.52l3.19 1.79c-.53 2.59-.8 5.19-.8 7.73 0 2.58.26 5.18.79 7.74l-3.18 1.78C5.1 60.67 4.4 63.2 5.57 65.18l8.7 14.64c1.17 1.98 3.78 2.66 5.81 1.52l3.18-1.79c4.02 3.44 8.75 6.1 13.79 7.75v3.56c0 2.28 1.91 4.14 4.26 4.14h17.38c2.35 0 4.26-1.86 4.26-4.14V87.3c5.01-1.64 9.73-4.31 13.77-7.76l3.2 1.8c2.03 1.14 4.64.46 5.81-1.52l8.7-14.64c1.17-1.98.47-4.51-1.56-5.66zm-.8 4.34L83.38 78.5c-.42.72-1.37.96-2.1.55l-4.06-2.28c-.51-.29-1.16-.22-1.6.18-4.15 3.72-9.14 6.54-14.43 8.13-.57.17-.96.69-.96 1.26v4.52c0 .83-.69 1.5-1.54 1.5H41.31c-.85 0-1.54-.67-1.54-1.5v-4.52c0-.57-.39-1.09-.96-1.26a38.183 38.183 0 0 1-14.45-8.12c-.25-.24-.59-.36-.92-.36-.23 0-.47.06-.68.18l-4.04 2.27c-.73.41-1.68.17-2.1-.55L7.93 63.86c-.43-.72-.18-1.63.56-2.05l4.03-2.26c.52-.29.78-.87.65-1.44-.62-2.68-.94-5.41-.94-8.11 0-2.66.32-5.39.95-8.11.13-.56-.13-1.14-.64-1.43l-4.05-2.27c-.36-.2-.61-.53-.72-.91-.1-.39-.05-.79.16-1.14l8.69-14.64a1.564 1.564 0 0 1 2.1-.55l4.06 2.28c.51.29 1.16.22 1.6-.18 4.15-3.72 9.14-6.54 14.43-8.13.57-.17.96-.69.96-1.26V9.14c0-.83.69-1.5 1.54-1.5h17.38c.85 0 1.54.67 1.54 1.5v4.52c0 .57.39 1.09.96 1.26 5.33 1.6 10.32 4.41 14.45 8.12.43.4 1.08.47 1.6.18l4.04-2.27c.35-.2.77-.25 1.17-.15.39.11.72.35.93.7l8.7 14.64c.2.35.26.75.15 1.14-.11.38-.36.71-.72.91l-4.03 2.26c-.52.29-.78.87-.65 1.44.62 2.67.94 5.4.94 8.11 0 2.66-.32 5.39-.95 8.11-.13.56.13 1.14.64 1.43l4.05 2.27c.74.42.99 1.33.56 2.05z"/><path d="M50 23.32c-15.13 0-27.44 11.97-27.44 26.68 0 14.71 12.31 26.68 27.44 26.68S77.44 64.71 77.44 50c0-14.71-12.31-26.68-27.44-26.68zm0 50.72c-13.63 0-24.73-10.78-24.73-24.04S36.37 25.96 50 25.96 74.73 36.74 74.73 50 63.63 74.04 50 74.04z"/><path d="M55.07 43.04H50c-.75 0-1.36.59-1.36 1.32v11.28c0 .73.61 1.32 1.36 1.32.75 0 1.36-.59 1.36-1.32v-2.91h3.71c2.75 0 4.98-2.17 4.98-4.84s-2.23-4.85-4.98-4.85zm0 7.05h-3.71v-4.41h3.71c1.25 0 2.27.99 2.27 2.21 0 1.21-1.02 2.2-2.27 2.2zM42.58 43.9c-.2-.52-.71-.86-1.27-.86h-1.45c-.57 0-1.08.34-1.28.86l-4.34 11.27a1.3 1.3 0 0 0 .79 1.7c.7.26 1.49-.09 1.75-.77l.76-1.96h6.08l.76 1.96a1.364 1.364 0 0 0 1.75.77 1.3 1.3 0 0 0 .79-1.7L42.58 43.9zm-4.02 7.6l2.02-5.25 2.03 5.25h-4.05zM63.04 43.04c-.75 0-1.36.59-1.36 1.32v11.28c0 .73.61 1.32 1.36 1.32.75 0 1.36-.59 1.36-1.32V44.36c0-.73-.61-1.32-1.36-1.32zM59.72 20.38c.94.29 1.88.63 2.79 1 .18.08.36.11.53.11.53 0 1.03-.3 1.25-.8.3-.67-.02-1.45-.71-1.74-.99-.41-2.01-.77-3.04-1.09-.71-.22-1.48.16-1.7.86-.23.69.16 1.43.88 1.66zM21.91 64.87c-.35-.64-1.18-.88-1.84-.53-.66.35-.9 1.15-.54 1.79.56 1.01 1.19 1.99 1.85 2.94.27.37.69.57 1.13.57.26 0 .53-.07.76-.23.62-.41.78-1.24.35-1.84-.61-.87-1.19-1.78-1.71-2.7zM47.22 80.97c-7.28-.61-14.19-3.68-19.46-8.64-.54-.5-1.4-.49-1.92.03-.52.53-.51 1.36.03 1.87 5.72 5.38 13.21 8.71 21.11 9.37.04.01.08.01.12.01.7 0 1.29-.52 1.35-1.21.07-.73-.48-1.37-1.23-1.43zM69.55 22.13a1.39 1.39 0 0 0-1.89.35c-.42.6-.26 1.42.36 1.84 6.31 4.19 10.87 10.43 12.85 17.57a1.359 1.359 0 0 0 1.67.93c.72-.19 1.15-.91.96-1.62-2.15-7.74-7.1-14.52-13.95-19.07z"/>

<g><path d=" M 92.87 59.52 L 89.68 57.73 C 90.21 55.14 90.48 52.54 90.48 50 C 90.48 47.42 90.22 44.82 89.69 42.26 L 92.87 40.48 C 93.85 39.92 94.56 39.03 94.85 37.96 C 95.15 36.89 95 35.78 94.43 34.82 L 85.73 20.18 C 85.16 19.22 84.25 18.54 83.15 18.25 C 82.05 17.96 80.9 18.11 79.92 18.66 L 76.74 20.45 C 72.72 17.01 67.99 14.35 62.95 12.7 L 62.95 9.14 C 62.95 6.86 61.04 5 58.69 5 L 41.31 5 C 38.96 5 37.05 6.86 37.05 9.14 L 37.05 12.7 C 32.04 14.34 27.32 17.01 23.28 20.46 L 20.08 18.66 C 19.1 18.11 17.95 17.96 16.85 18.25 C 15.75 18.54 14.84 19.22 14.27 20.18 L 5.57 34.82 C 5 35.78 4.85 36.89 5.15 37.96 C 5.44 39.03 6.15 39.92 7.13 40.48 L 10.32 42.27 C 9.79 44.86 9.52 47.46 9.52 50 C 9.52 52.58 9.78 55.18 10.31 57.74 L 7.13 59.52 C 5.1 60.67 4.4 63.2 5.57 65.18 L 14.27 79.82 C 15.44 81.8 18.05 82.48 20.08 81.34 L 23.26 79.55 C 27.28 82.99 32.01 85.65 37.05 87.3 L 37.05 90.86 C 37.05 93.14 38.96 95 41.31 95 L 58.69 95 C 61.04 95 62.95 93.14 62.95 90.86 L 62.95 87.3 C 67.96 85.66 72.68 82.99 76.72 79.54 L 79.92 81.34 C 81.95 82.48 84.56 81.8 85.73 79.82 L 94.43 65.18 C 95.6 63.2 94.9 60.67 92.87 59.52 Z  M 92.07 63.86 L 83.38 78.5 C 82.96 79.22 82.01 79.46 81.28 79.05 L 77.22 76.77 C 76.71 76.48 76.06 76.55 75.62 76.95 C 71.47 80.67 66.48 83.49 61.19 85.08 C 60.62 85.25 60.23 85.77 60.23 86.34 L 60.23 90.86 C 60.23 91.69 59.54 92.36 58.69 92.36 L 41.31 92.36 C 40.46 92.36 39.77 91.69 39.77 90.86 L 39.77 86.34 C 39.77 85.77 39.38 85.25 38.81 85.08 C 33.48 83.48 28.49 80.67 24.36 76.96 C 24.11 76.72 23.77 76.6 23.44 76.6 C 23.21 76.6 22.97 76.66 22.76 76.78 L 18.72 79.05 C 17.99 79.46 17.04 79.22 16.62 78.5 L 7.93 63.86 C 7.5 63.14 7.75 62.23 8.49 61.81 L 12.52 59.55 C 13.04 59.26 13.3 58.68 13.17 58.11 C 12.55 55.43 12.23 52.7 12.23 50 C 12.23 47.34 12.55 44.61 13.18 41.89 C 13.31 41.33 13.05 40.75 12.54 40.46 L 8.49 38.19 C 8.13 37.99 7.88 37.66 7.77 37.28 C 7.67 36.89 7.72 36.49 7.93 36.14 L 16.62 21.5 C 16.83 21.15 17.16 20.91 17.56 20.8 C 17.95 20.7 18.37 20.75 18.72 20.95 L 22.78 23.23 C 23.29 23.52 23.94 23.45 24.38 23.05 C 28.53 19.33 33.52 16.51 38.81 14.92 C 39.38 14.75 39.77 14.23 39.77 13.66 L 39.77 9.14 C 39.77 8.31 40.46 7.64 41.31 7.64 L 58.69 7.64 C 59.54 7.64 60.23 8.31 60.23 9.14 L 60.23 13.66 C 60.23 14.23 60.62 14.75 61.19 14.92 C 66.52 16.52 71.51 19.33 75.64 23.04 C 76.07 23.44 76.72 23.51 77.24 23.22 L 81.28 20.95 C 81.63 20.75 82.05 20.7 82.45 20.8 C 82.84 20.91 83.17 21.15 83.38 21.5 L 92.08 36.14 C 92.28 36.49 92.34 36.89 92.23 37.28 C 92.12 37.66 91.87 37.99 91.51 38.19 L 87.48 40.45 C 86.96 40.74 86.7 41.32 86.83 41.89 C 87.45 44.56 87.77 47.29 87.77 50 C 87.77 52.66 87.45 55.39 86.82 58.11 C 86.69 58.67 86.95 59.25 87.46 59.54 L 91.51 61.81 C 92.25 62.23 92.5 63.14 92.07 63.86 Z "/><path d=" M 50 23.32 C 34.87 23.32 22.56 35.29 22.56 50 C 22.56 64.71 34.87 76.68 50 76.68 C 65.13 76.68 77.44 64.71 77.44 50 C 77.44 35.29 65.13 23.32 50 23.32 Z  M 50 74.04 C 36.37 74.04 25.27 63.26 25.27 50 C 25.27 36.74 36.37 25.96 50 25.96 C 63.63 25.96 74.73 36.74 74.73 50 C 74.73 63.26 63.63 74.04 50 74.04 Z "/><path d=" M 55.07 43.04 L 50 43.04 C 49.25 43.04 48.64 43.63 48.64 44.36 L 48.64 55.64 C 48.64 56.37 49.25 56.96 50 56.96 C 50.75 56.96 51.36 56.37 51.36 55.64 L 51.36 52.73 L 55.07 52.73 C 57.82 52.73 60.05 50.56 60.05 47.89 C 60.05 45.22 57.82 43.04 55.07 43.04 Z  M 55.07 50.09 L 51.36 50.09 L 51.36 45.68 L 55.07 45.68 C 56.32 45.68 57.34 46.67 57.34 47.89 C 57.34 49.1 56.32 50.09 55.07 50.09 Z "/><path d=" M 42.58 43.9 C 42.38 43.38 41.87 43.04 41.31 43.04 L 39.86 43.04 C 39.29 43.04 38.78 43.38 38.58 43.9 L 34.24 55.17 C 33.97 55.86 34.33 56.62 35.03 56.87 C 35.73 57.13 36.52 56.78 36.78 56.1 L 37.54 54.14 L 43.62 54.14 L 44.38 56.1 C 44.59 56.63 45.1 56.96 45.65 56.96 C 45.81 56.96 45.97 56.93 46.13 56.87 C 46.83 56.62 47.19 55.86 46.92 55.17 L 42.58 43.9 Z  M 38.56 51.5 L 40.58 46.25 L 42.61 51.5 L 38.56 51.5 Z "/><path d=" M 63.04 43.04 C 62.29 43.04 61.68 43.63 61.68 44.36 L 61.68 55.64 C 61.68 56.37 62.29 56.96 63.04 56.96 C 63.79 56.96 64.4 56.37 64.4 55.64 L 64.4 44.36 C 64.4 43.63 63.79 43.04 63.04 43.04 Z "/><path d=" M 59.72 20.38 C 60.66 20.67 61.6 21.01 62.51 21.38 C 62.69 21.46 62.87 21.49 63.04 21.49 C 63.57 21.49 64.07 21.19 64.29 20.69 C 64.59 20.02 64.27 19.24 63.58 18.95 C 62.59 18.54 61.57 18.18 60.54 17.86 C 59.83 17.64 59.06 18.02 58.84 18.72 C 58.61 19.41 59 20.15 59.72 20.38 Z "/><path d=" M 21.91 64.87 C 21.56 64.23 20.73 63.99 20.07 64.34 C 19.41 64.69 19.17 65.49 19.53 66.13 C 20.09 67.14 20.72 68.12 21.38 69.07 C 21.65 69.44 22.07 69.64 22.51 69.64 C 22.77 69.64 23.04 69.57 23.27 69.41 C 23.89 69 24.05 68.17 23.62 67.57 C 23.01 66.7 22.43 65.79 21.91 64.87 Z "/><path d=" M 47.22 80.97 C 39.94 80.36 33.03 77.29 27.76 72.33 C 27.22 71.83 26.36 71.84 25.84 72.36 C 25.32 72.89 25.33 73.72 25.87 74.23 C 31.59 79.61 39.08 82.94 46.98 83.6 C 47.02 83.61 47.06 83.61 47.1 83.61 C 47.8 83.61 48.39 83.09 48.45 82.4 C 48.52 81.67 47.97 81.03 47.22 80.97 Z "/><path d=" M 69.55 22.13 C 68.93 21.72 68.08 21.88 67.66 22.48 C 67.24 23.08 67.4 23.9 68.02 24.32 C 74.33 28.51 78.89 34.75 80.87 41.89 C 81.04 42.48 81.58 42.87 82.18 42.87 C 82.3 42.87 82.42 42.85 82.54 42.82 C 83.26 42.63 83.69 41.91 83.5 41.2 C 81.35 33.46 76.4 26.68 69.55 22.13 Z "/></g>
